images_sukapura_svg/cmd/sc_zoomoptimal.svg

<svg viewBox="0 0 16 16" xmlns="http://www.w3.org/2000/svg">/&amp;amp;gt;<path d="m6 0a6 6 0 0 0 -6 6 6 6 0 0 0 6 6 6 6 0 0 0 3.4746094-1.113281l4.6582026 4.65625c.195869.195868.511163.195868.707032 0l.707031-.707031c.195869-.195869.195869-.511163 0-.707032l-4.660156-4.6582029a6 6 0 0 0 1.113281-3.4707031 6 6 0 0 0 -6-6zm0 1a4.9992638 4.9992638 0 0 1 5 5 4.9992638 4.9992638 0 0 1 -1.4902344 3.5585938 4.9992638 4.9992638 0 0 1 -.0253906.0273437l-.015625.0136719a4.9992638 4.9992638 0 0 1 -3.46875 1.4003906 4.9992638 4.9992638 0 0 1 -5-5 4.9992638 4.9992638 0 0 1 5-5z" fill="#69696e"/><path d="m6.7832031.05859375-.7285156.94335935a4.9992638 4.9992638 0 0 1 4.6816405 3.4160157l.001953-.0019532.841797-.6015625a6 6 0 0 0 -.628906-1.203125 6 6 0 0 0 -.283203-.3730469c-.146316-.1765864-.300149-.3561907-.478516-.53125-.163987-.1609462-.3512467-.3142498-.5410155-.4648437a6 6 0 0 0 -.375-.26757812c-.0259314-.0176369-.0537593-.03347446-.0800781-.05078126a6 6 0 0 0 -2.1640625-.83398437c-.003288-.00041619-.0064748-.00154368-.0097657-.00195312a6 6 0 0 0 -.2363281-.02929688z" fill="#fff" fill-opacity=".784314"/><path d="m8.0943758 0h4.9056242l-3 3h1l-7 5 2-4h-1z" fill="#ff9500" fill-rule="evenodd"/></svg>

<?xml version="1.0" encoding="UTF-8" standalone="no"?>
<svg
   xmlns:dc="http://purl.org/dc/elements/1.1/"
   xmlns:cc="http://creativecommons.org/ns#"
   xmlns:rdf="http://www.w3.org/1999/02/22-rdf-syntax-ns#"
   xmlns:svg="http://www.w3.org/2000/svg"
   xmlns="http://www.w3.org/2000/svg"
   xmlns:sodipodi="http://sodipodi.sourceforge.net/DTD/sodipodi-0.dtd"
   xmlns:inkscape="http://www.inkscape.org/namespaces/inkscape"
   viewBox="0 0 16 16"
   version="1.1"
   id="svg8"
   sodipodi:docname="sc_zoomoptimal.svg"
   inkscape:version="0.92.3 (unknown)"
   inkscape:export-filename="/home/rizmut/Dokumen/Rizmut/Github/libreoffice-style-sukapura/images_sukapura/cmd/sc_zoomoptimal.png"
   inkscape:export-xdpi="96"
   inkscape:export-ydpi="96"><metadata
   id="metadata14">
  <rdf:RDF>
    <cc:Work
       rdf:about="">
      <dc:format>image/svg+xml</dc:format>
      <dc:type
         rdf:resource="http://purl.org/dc/dcmitype/StillImage" />
      <dc:title />
    </cc:Work>
  </rdf:RDF>
</metadata>
<defs
   id="defs12" />
<sodipodi:namedview
   pagecolor="#ffffff"
   bordercolor="#666666"
   borderopacity="1"
   objecttolerance="10"
   gridtolerance="10"
   guidetolerance="10"
   inkscape:pageopacity="0"
   inkscape:pageshadow="2"
   inkscape:window-width="1366"
   inkscape:window-height="699"
   id="namedview10"
   showgrid="true"
   inkscape:zoom="14.75"
   inkscape:cx="12.40585"
   inkscape:cy="9.4809562"
   inkscape:window-x="0"
   inkscape:window-y="0"
   inkscape:window-maximized="1"
   inkscape:current-layer="svg8">
  <inkscape:grid
     type="xygrid"
     id="grid1527" />
</sodipodi:namedview>




     /&amp;gt;
 <path
   inkscape:connector-curvature="0"
   style="opacity:1;fill:#69696e;fill-opacity:1;stroke:none;stroke-width:1;stroke-linecap:round;stroke-linejoin:round;stroke-miterlimit:4;stroke-dasharray:none;stroke-opacity:0"
   d="m 6,0 a 6,6 0 0 0 -6,6 6,6 0 0 0 6,6 6,6 0 0 0 3.4746094,-1.113281 l 4.6582026,4.65625 c 0.195869,0.195868 0.511163,0.195868 0.707032,0 l 0.707031,-0.707031 c 0.195869,-0.195869 0.195869,-0.511163 0,-0.707032 L 10.886719,9.4707031 A 6,6 0 0 0 12,6 6,6 0 0 0 6,0 Z M 6,1 A 4.9992638,4.9992638 0 0 1 11,6 4.9992638,4.9992638 0 0 1 9.5097656,9.5585938 4.9992638,4.9992638 0 0 1 9.484375,9.5859375 L 9.46875,9.5996094 A 4.9992638,4.9992638 0 0 1 6,11 4.9992638,4.9992638 0 0 1 1,6 4.9992638,4.9992638 0 0 1 6,1 Z"
   id="path855" />
<path
   style="fill:#ffffff;fill-opacity:0.78431373"
   d="M 6.7832031 0.05859375 L 6.0546875 1.0019531 A 4.9992638 4.9992638 0 0 1 10.736328 4.4179688 L 10.738281 4.4160156 L 11.580078 3.8144531 A 6 6 0 0 0 10.951172 2.6113281 A 6 6 0 0 0 10.667969 2.2382812 C 10.521653 2.0616948 10.36782 1.8820905 10.189453 1.7070312 C 10.025466 1.546085 9.8382063 1.3927814 9.6484375 1.2421875 A 6 6 0 0 0 9.2734375 0.97460938 C 9.2475061 0.95697248 9.2196782 0.94113492 9.1933594 0.92382812 A 6 6 0 0 0 7.0292969 0.08984375 C 7.0260089 0.089427561 7.0228221 0.088300068 7.0195312 0.087890625 A 6 6 0 0 0 6.7832031 0.05859375 z "
   id="path2" />
<path
   d="m8.0943758 0h4.9056242l-3 3h1l-7 5 2-4h-1z"
   fill="#eac082"
   fill-rule="evenodd"
   id="path6"
   style="fill:#ff9500;fill-opacity:1" />
</svg>
